static/img/in-field/switch-label-left-dark.svg

<svg width="141" height="57" viewBox="0 0 141 57" fill="none" xmlns="http://www.w3.org/2000/svg">
<path d="M1.07324 37.3332V21.6281H2.89941V35.6789H9.82812V37.3332H1.07324ZM19.7246 37.3332L19.3701 35.6574H19.2842C18.6969 36.395 18.1097 36.8963 17.5225 37.1613C16.9424 37.4191 16.2155 37.548 15.3418 37.548C14.1745 37.548 13.2578 37.2473 12.5918 36.6457C11.9329 36.0441 11.6035 35.1883 11.6035 34.0783C11.6035 31.7007 13.5049 30.4546 17.3076 30.34L19.3057 30.2756V29.5451C19.3057 28.6213 19.1051 27.9409 18.7041 27.5041C18.3102 27.0601 17.6764 26.8381 16.8027 26.8381C15.8216 26.8381 14.7116 27.1389 13.4727 27.7404L12.9248 26.3762C13.5049 26.0611 14.1387 25.814 14.8262 25.6349C15.5208 25.4559 16.2155 25.3664 16.9102 25.3664C18.3138 25.3664 19.3522 25.6779 20.0254 26.301C20.7057 26.924 21.0459 27.923 21.0459 29.298V37.3332H19.7246ZM15.6963 36.0764C16.8063 36.0764 17.6764 35.772 18.3066 35.1633C18.944 34.5545 19.2627 33.7023 19.2627 32.6066V31.5432L17.4795 31.6183C16.0615 31.6685 15.0374 31.8905 14.4072 32.2844C13.7842 32.6711 13.4727 33.2762 13.4727 34.0998C13.4727 34.7443 13.666 35.2349 14.0527 35.5715C14.4466 35.9081 14.9945 36.0764 15.6963 36.0764ZM30.459 25.3664C32.0059 25.3664 33.2054 25.8963 34.0576 26.9562C34.917 28.009 35.3467 29.5021 35.3467 31.4357C35.3467 33.3693 34.9134 34.8732 34.0469 35.9474C33.1875 37.0145 31.9915 37.548 30.459 37.548C29.6927 37.548 28.9909 37.4084 28.3535 37.1291C27.7233 36.8426 27.1934 36.4058 26.7637 35.8185H26.6348L26.2588 37.3332H24.9805V20.6183H26.7637V24.6789C26.7637 25.5884 26.735 26.4048 26.6777 27.1281H26.7637C27.5944 25.9536 28.8262 25.3664 30.459 25.3664ZM30.2012 26.8596C28.9837 26.8596 28.1064 27.2105 27.5693 27.9123C27.0322 28.607 26.7637 29.7814 26.7637 31.4357C26.7637 33.09 27.0394 34.2752 27.5908 34.9914C28.1423 35.7004 29.0267 36.0549 30.2441 36.0549C31.3398 36.0549 32.1562 35.6574 32.6934 34.8625C33.2305 34.0604 33.499 32.911 33.499 31.4142C33.499 29.8817 33.2305 28.7394 32.6934 27.9875C32.1562 27.2355 31.3255 26.8596 30.2012 26.8596ZM43.6963 37.548C41.9561 37.548 40.5811 37.0181 39.5713 35.9582C38.5687 34.8983 38.0674 33.4266 38.0674 31.5432C38.0674 29.6454 38.5329 28.1379 39.4639 27.0207C40.402 25.9035 41.6589 25.3449 43.2344 25.3449C44.7096 25.3449 45.877 25.8319 46.7363 26.8058C47.5957 27.7726 48.0254 29.051 48.0254 30.6408V31.7687H39.915C39.9508 33.1509 40.2982 34.2001 40.957 34.9162C41.623 35.6323 42.5576 35.9904 43.7607 35.9904C45.0283 35.9904 46.2816 35.7254 47.5205 35.1955V36.7853C46.8903 37.0575 46.2923 37.2508 45.7266 37.3654C45.168 37.4872 44.4912 37.548 43.6963 37.548ZM43.2129 26.8381C42.2676 26.8381 41.512 27.146 40.9463 27.7619C40.3877 28.3778 40.0583 29.23 39.958 30.3185H46.1133C46.1133 29.1942 45.8626 28.3348 45.3613 27.7404C44.86 27.1389 44.1439 26.8381 43.2129 26.8381ZM53.1094 37.3332H51.3262V20.6183H53.1094V37.3332Z" fill="white"/>
<rect width="64" height="32" rx="16" transform="matrix(1 0 0 -1 70 44.3332)" fill="#019AEB"/>
<path d="M131 28.3332C131 35.5129 125.18 41.3332 118 41.3332C110.82 41.3332 105 35.5129 105 28.3332C105 21.1535 110.82 15.3332 118 15.3332C125.18 15.3332 131 21.1535 131 28.3332Z" fill="white"/>
</svg>

<svg width="141" height="57" fill="none" xmlns="http://www.w3.org/2000/svg"><path d="M1.073 37.333V21.628H2.9v14.05h6.93v1.655H1.072zm18.652 0l-.355-1.676h-.086c-.587.738-1.174 1.24-1.761 1.504-.58.258-1.308.387-2.181.387-1.168 0-2.084-.3-2.75-.902-.66-.602-.989-1.458-.989-2.568 0-2.377 1.902-3.623 5.705-3.738l1.998-.064v-.73c0-.925-.2-1.605-.602-2.042-.394-.444-1.028-.666-1.901-.666-.981 0-2.091.3-3.33.902l-.548-1.364a8.405 8.405 0 011.901-.741 8.322 8.322 0 012.084-.269c1.404 0 2.442.312 3.115.935.68.623 1.02 1.622 1.02 2.997v8.035h-1.32zm-4.029-1.257c1.11 0 1.98-.304 2.61-.913.638-.608.957-1.46.957-2.556v-1.064l-1.784.075c-1.418.05-2.442.273-3.072.666-.623.387-.934.992-.934 1.816 0 .644.193 1.135.58 1.471.394.337.941.505 1.643.505zm14.763-10.71c1.547 0 2.746.53 3.599 1.59.859 1.053 1.289 2.546 1.289 4.48 0 1.933-.434 3.437-1.3 4.511-.86 1.067-2.055 1.601-3.588 1.601a5.19 5.19 0 01-2.105-.419 4.001 4.001 0 01-1.59-1.31h-.13l-.375 1.514H24.98V20.618h1.784v4.06c0 .91-.029 1.727-.086 2.45h.086c.83-1.174 2.062-1.762 3.695-1.762zm-.258 1.494c-1.217 0-2.095.35-2.632 1.052-.537.695-.805 1.87-.805 3.524s.275 2.84.827 3.555c.551.71 1.436 1.064 2.653 1.064 1.096 0 1.912-.398 2.45-1.193.536-.802.805-1.951.805-3.448 0-1.532-.269-2.675-.806-3.427-.537-.752-1.367-1.127-2.492-1.127zm13.495 10.688c-1.74 0-3.115-.53-4.125-1.59-1.002-1.06-1.504-2.531-1.504-4.415 0-1.898.466-3.405 1.397-4.522.938-1.117 2.195-1.676 3.77-1.676 1.476 0 2.643.487 3.502 1.46.86.968 1.29 2.246 1.29 3.836v1.128h-8.111c.036 1.382.383 2.431 1.042 3.147.666.716 1.6 1.074 2.804 1.074 1.267 0 2.52-.265 3.76-.794v1.59a9.114 9.114 0 01-1.794.58c-.559.121-1.236.182-2.03.182zm-.483-10.71c-.945 0-1.701.308-2.267.924-.558.616-.888 1.468-.988 2.556h6.155c0-1.124-.25-1.983-.752-2.578-.501-.601-1.217-.902-2.148-.902zm9.896 10.495h-1.783V20.618h1.783v16.715z" fill="#fff"/><rect width="64" height="32" rx="16" transform="matrix(1 0 0 -1 70 44.333)" fill="#019AEB"/><path d="M131 28.333c0 7.18-5.82 13-13 13s-13-5.82-13-13 5.82-13 13-13 13 5.82 13 13z" fill="#fff"/></svg>
